!!!COM: Anonim
!!!CDT: [?]
!!!OTL@@POL: Pan Jesus się nam narodzil
!!!TXO: Polish
!!!ODT: 
!!!GTL: Hymnbook A
!!!ARL: Opactwo św. Wojciecha, Staniątki 
!!!voices:	1
**kern
*staff1
*I"[Canto]
=1-
*oclefC1
*clefG2
!*k[b-]
*met(c|)
*M2/1
!LO:TX:Y=0:Z=20:t=page 30v
1d
1d
=-
1c
1d
=-
2d
1e
[2d
=-
2d]
2c
1d
=-
1d
1d
=-
1d
1d
=-
1e
[1f
=-
1f]
1f
=-
1g
1a
=-
!LO:TX:Y=0:Z=20:t=page 31r
1f
1e
=-
1d
1c
=-
1d
1a
=-
2a
2f
2e
2d
=-
2c
2d
1a
=-
1a
2a
2f
=-
1e
1d
1e
[2f
=-
4f]
4e
1d
2c
=-
0d
==
*-
!!title: @{OTL}, @{GTL}: @{pag}, ed. @{ENC}
!!!pag: 30v-31r
!!!GTL: Hymnbook A
!!!EFL: 
!!!YEM: Creative Commons CC/BY/NC/SA 4.0
!!!ENC: Marcin Konik
!!!END: 2015-04-20
!!!EED: Marcin Konik
!!!EEV: 
!!!ONB: Encoded in vim by Marcin Konik
!!!CharacterEncoding: utf-8
!!!RDF**kern: l=long note in original notation
!!!RDF**kern: i=editorial accidental
!!muse2ps: z14jc180F
